X: 24
T:Danza Picada
M:2/4
L:1/8
Q:320
C:Trad
B:Leccións de Gaita. OTERO COVELO
K:C
EG |: GF FA | AG Gc | BAGF |
AG EG | GF FA | AG Gc | BAGF |1
E2 EG :|2 E2 E2 |: GABc | G2 GE | GFED |
G2 G2 | GABc | G2 GE | GFED |1 E2E2 :|2 C2 ||

% Output from ABC2Win  Version 2.1 h on 14/02/99
